X:532
T: Cui dong cui
N: C0118
O: China,Hubei, Qianjiang
S: I, 465]
N: Vereinzelt Verzierungen.
R: Arbeitslied, HAOZI.Da mai ge. Arbeit bei Weizenmaehe]
M: 2/4
L: 1/16
K: D
d2A2d2dd | f3ad4 |
AAFAAdFA | A4d4 |
ddBAdddd | d2fad4 |
FAAAFAAF | D3FA4 |
f3de3d | d3fA4 |
f3de3d | d3fA4 |
dfA2dfA2 | F2AdA4 |
A2d4AF | d3fA4 |
AdF2A2AF | D3FA4

@@@ Tune index: 6533
